X:59
T:Dusty Miller. BC.59
M:6/8
L:1/8
Q:3/8=100
S:Benjamin Cooke MS.circa 1770, F.Kidson Coll.
R:.Misc.
O:England
A:Uncertain, probably northern
Z:vmp.John Bagnall
K:G
“^Usually in 3/4″\
B>cd BAG|F ~A2 cBA|B>cd BAG|DG2 BAG:|!
|:B>cd efg|a”^B2 in MS”A2 cBA|B>cd e<f “^NB”e/f/|g>ag BAG:|
W:NB=demisemiquavers in MS

